**kern	**kern	**dynam
*part1	*part1	*part1
*staff2	*staff1	*
*I"Piano	*	*
*clefF4	*clefG2	*
*k[]	*k[]	*
=1	=1	=1
2FF 2F	2f 2ff	.
2DD 2D	2d 2dd	.
=	=	=
2.BBB 2.BB	2.B 2.b	.
4GGG 4GG	4G 4g	.
=	=	=
2AAA 2AA	2c 2e 2cc	f
2GGG 2GG	2d 2g 2b 2dd	f
=	=	=
!	!LO:TX:b:i:t=cresc.	!
2.CC 2.C	2.e 2.g 2.cc 2.ee	.
4C 4c	4e 4g 4cc 4ee	.
=	=	=
2.AA 2.C#X 2.E 2.A	2.e 2.a 2.cc#X 2.ee	ff
4AA 4C# 4E 4A	4e 4a 4cc# 4ee	.
=	=	=
2.D 2.F 2.A 2.d	2.f 2.a 2.dd 2.ff	sf
4FF 4F	4d 4a 4dd	.
=	=	=
2GG 2C 2E 2G	2g 2cc 2ee 2gg	sf
2GGG 2GG	2B 2d 2g 2b	sf
=	=	=
2.CC 2.EE 2.GG 2.C	2.c 2.e 2.g 2.cc	.
4CC 4EE 4GG 4C	4ee 4gg 4ccc 4eee	ff
=	=	=
2.CC 2.EE 2.GG 2.C	2.ee 2.gg 2.ccc 2.eee	.
*^	*	*
4E 4G 4c	4CC 4EE 4GG 4C	4ryy	ff
=	=	=	=
2.E; 2.G 2.c	2.CC; 2.EE 2.GG 2.C	2ryy	.
.	.	4ryy	.
*v	*v	*	*
==	==	==
*-	*-	*-
!!!system-decoration: {(s1,s2)}
